X: 1
T:Bourr\'ee
M:3/8
O:France
R:Bourr\'ee
K:GMix
f4e2| d3Ade| fe(df)ed| f2e2d2| f4e2| d4c2| B3ABc| d2B2G2 ::
gdBcd2 |gdBcd2| g3fga| b2a2g2| gdBcd2| gdBcd2| g3fga| g6:|
